X: 1
T:The Clan MacRae Society
M:C|
L:1/8
Q:80
C:W. Ferguson
S:2/4 March
K:HP
{gef}e|
{gAGAG}A{g}c/4e3/4a3/4g/4a3/4f/4|
{gef}ea3/4f/4{gef}e3/4c/4{g}B/4{d}A3/4|  !
{g}c{GdG}e3/4f/4a3/4f/4{g}e3/4f/4|
{gcd}c{g}B{GdGe}B{gef}e| |
{gAGAG}A{g}c/4e3/4a3/4g/4a3/4f/4|  !
{gef}ea3/4f/4{gef}e3/4c/4{g}B/4{d}A3/4|
{g}c{GdG}e3/4c/4{g}B3/4{d}c/4a3/4e/4|
{gcd}c{e}A{GAG}A:|  !
{gf}g|
a{g}a3/4e/4{g}f3/4e/4{g}c/4e3/4|
{gfg}fa3/4f/4{gef}e3/4c/4{g}B/4{d}A3/4|  !
{ag}a3/2g/4a3/4f/4{g}e3/4f/4|
{gcd}c{g}B{GdGe}B|1 {gf}g| |
a{g}a3/4e/4{g}f3/4e/4{g}c/4e3/4|  !
{gfg}fa3/4f/4{gef}e3/4c/4{g}B/4{d}A3/4|
{g}c{GdG}e3/4c/4{g}B3/4{d}c/4a3/4e/4|
{gcd}c{e}A{GAG}A:|  !
{gef}e|
{gAGAG}A{g}c/4e3/4{gAGAG}A{g}c/4{d}A3/4|
{g}c/4e3/4{A}e3/4f/4{gef}e3/4c/4{g}B/4{d}A3/4|  !
{g}c{GdG}e3/4c/4{gef}e3/4c/4{g}B/4{d}A3/4|
{gcd}c{g}B{GdGe}B{gef}e| |
{gAGAG}A{g}c/4e3/4{gAGAG}A{g}c/4{d}A3/4|  !
{g}c/4e3/4{A}e3/4f/4{gef}e3/4c/4{g}B/4{d}A3/4|
{g}c{GdG}e3/4c/4{g}B3/4{d}c/4a3/4e/4|
{gcd}c{e}A{GAG}A:|  !
{gf}g|
a3/4e/4{g}c/4e3/4{gfg}f3/4e/4{g}f/4a3/4|
c/4e3/4a3/4f/4{gef}e3/4c/4{g}B/4{d}A3/4|  !
a3/4f/4{g}e/4f3/4{gef}e3/4c/4{g}B/4{d}A3/4|
{gcd}c{g}B{GdGe}B|1 {gf}g| |
a3/4e/4{g}c/4e3/4{gfg}f3/4e/4{g}f/4a3/4|  !
c/4e3/4a3/4f/4{gef}e3/4c/4{g}B/4{d}A3/4|
{g}c{GdG}e3/4c/4{g}B3/4{d}c/4a3/4e/4|
{gcd}c{e}A{GAG}A:|  !
{gef}e|
{gAGAG}A{g}A3/4B/4{GdG}c3/2{g}B3/4c/4|
{Gdc}d{g}c3/4d/4{gef}e{ag}a|  !
{AGAG}A{g}A3/4B/4{g}c/4{d}A3/4a3/4e/4|
{gcd}c{g}B{GdGe}B{gef}e| |
{gAGAG}A{g}A3/4B/4{GdG}c3/2{g}B3/4c/4|  !
{Gdc}d{g}c3/4d/4{gef}e3/4c/4{ag}a|
{g}c{GdG}e3/4c/4{g}B3/4{d}c/4a3/4e/4|
{gcd}c{e}A{GAG}A:|  !
{gf}g|
a3/4e/4{g}c/4{d}A3/4{gfg}f3/4e/4{g}c/4{d}A3/4|
{Gdc}d{g}d/4f3/4{gef}e{g}c/4{d}A3/4|  !
{ag}ae/4a3/4{gfg}f3/4e/4a3/4e/4|
{gcd}c{g}B{GdGe}B{gf}g| |
a3/4e/4{g}c/4{d}A3/4{gfg}f3/4e/4{g}c/4{d}A3/4|  !
{Gdc}d{g}d/4f3/4{gef}e{g}c/4{d}A3/4|
{g}c{GdG}e3/4c/4{g}B3/4{d}c/4a3/4e/4|
{gcd}c{e}A{GAG}A:|  !
